X: 13109
T: Firefly, The
R: hornpipe
M: 4/4
K: Gmajor
G3 D (3GAB A>G|F>GE>F D2 (3edc|B>dG>d e>c (3cBc|(3ABA (3GFE D3 F|
G2 (3FGA G2 (3BAG|F2 (3GFE D>d^c>d|B>DG>B B>A (3AGF|G2 (3d^cd G2:|
(3BDG B>d (3GB/c/d g>f|a>gf>g e2 (3dcB|c2 (2Bcd c2 (3BAG|F>AE>G D>ed>c|
(3BDG B2 (3GBd g2|g>ff>e e>dd>c|c>BB>G F>Ad>c|B2 G2 G2:|
GFGA GBAG|FGEF DECD|B,DGD ECcB|A2 GE D2 EF|
GFGA GBAG|FGEF DECD|B,DGB BAGF|A2 G2 G3:|
B,G B2 Gd g2|g2 f2 edcB|cBcd cBAG|FAGE DEDC|
B,DGB GBdg|g2 f2 edcB|cBAG Fdef|g2 G2 G3:|

